static/img/icon_arrow-bottom.svg

<svg width="201" height="281" viewBox="0 0 201 281" fill="none" xmlns="http://www.w3.org/2000/svg">
<path d="M175.848 170.57C181.55 164.868 190.528 164.868 196.228 170.57C198.878 173.3 200.36 176.955 200.36 180.76C200.36 184.565 198.878 188.22 196.228 190.95L110.828 276.363C109.464 277.725 107.843 278.805 106.06 279.539C104.278 280.273 102.367 280.647 100.439 280.64C98.5091 280.646 96.597 280.271 94.8122 279.537C93.0273 278.803 91.4046 277.725 90.037 276.363L4.637 190.95C-1.065 185.248 -1.065 176.272 4.637 170.57C10.339 164.868 19.315 164.868 25.017 170.57L85.967 231.724L85.967 14.628C85.954 6.67798 92.477 0.359981 100.427 0.359981C108.377 0.359981 114.694 6.67998 114.694 14.628L114.694 231.71L175.848 170.57V170.57Z" fill="white"/>
</svg>

<svg xmlns="http://www.w3.org/2000/svg" width="201" height="281" fill="none"  xmlns:v="https://vecta.io/nano"><path d="M175.848 170.57c5.702-5.702 14.68-5.702 20.38 0a14.63 14.63 0 0 1 0 20.38l-85.4 85.413c-1.364 1.362-2.985 2.442-4.768 3.176a14.62 14.62 0 0 1-5.621 1.101c-1.93.006-3.842-.369-5.627-1.103s-3.408-1.812-4.775-3.174l-85.4-85.413c-5.702-5.702-5.702-14.678 0-20.38s14.678-5.702 20.38 0l60.95 61.154V14.628C85.954 6.678 92.477.36 100.427.36s14.267 6.32 14.267 14.268V231.71l61.154-61.14z" fill="#fff"/></svg>
